!!!COM: Bach, Johann Sebastian
!!!CDT: 1685/02/21/-1750/07/28/
!!!OTL@@DE:	Aus tiefer Not schrei ich zu dir
!!!SCT: BWV 38/6
!!!PC#:	10
!!!AGN: chorale
**harm	**kern	**kern	**kern	**kern
*	*ICvox	*ICvox	*ICvox	*ICvox
*	*Ibass	*Itenor	*Ialto	*Isoprn
*	*I"Bass	*I"Tenor	*I"Alto	*I"Soprano
*>[A,A,B]	*>[A,A,B]	*>[A,A,B]	*>[A,A,B]	*>[A,A,B]
*>norep[A,B]	*>norep[A,B]	*>norep[A,B]	*>norep[A,B]	*>norep[A,B]
*>A	*>A	*>A	*>A	*>A
*	*	*oclefC4	*oclefC3	*oclefC1
*	*clefF4	*clefGv2	*clefG2	*clefG2
*k[]	*k[]	*k[]	*k[]	*k[]
*a:	*a:	*a:	*a:	*a:
*M4/4	*M4/4	*M4/4	*M4/4	*M4/4
*met(c)	*met(c)	*met(c)	*met(c)	*met(c)
**MM100	*MM100	*MM100	*MM100	*MM100
=1-	=1-	=1-	=1-	=1-
V2	2D	2G#	2e	2b
i6	4C	4A	4e	4e
viio6	4BB	4d	4g#	4b
=2	=2	=2	=2	=2
i	4AA	4e	4a	4cc
VII6	4BB	4d	4gnX	4b
III	4C	4e	4e	4g
viio6/VII	4AA	4c	4f#	4a
=3	=3	=3	=3	=3
V;	2E;	2B;	2g#;	2b;
V	2E	2e	2g#	2b
=4	=4	=4	=4	=4
i	4A	4e	4a	4cc
C:V7	8GL	8fL	8bL	8ddL
V2	8FJ	8fJ	8bJ	8ddJ
I6	4E	4g	4cc	4cc
IV	4F	4c	4f	4a
=5	=5	=5	=5	=5
I	4C	4c	4e	4g
ii	4D	4A	4d	4f
a:V;	2E;	2G#;	2B;	2e;
=6:|!	=6:|!	=6:|!	=6:|!	=6:|!
*>B	*>B	*>B	*>B	*>B
i	2c	2A	2e	2a
VII6	4B	4B	4d	4gnX
i	8AL	8cL	8eL	8ccL
viio6/VII	8AJ	8cJ	8f#J	8ccJ
=7	=7	=7	=7	=7
VII	4G	4d	4g	4b
iv6	4FnX	4d	4a	4a
iio6	4D	4f	4b	4dd
V	4E	4B	4g#	4b
=8	=8	=8	=8	=8
i;	2AA;	2c;	2e;	2a;
i	2A	2e	2a	2cc
=9	=9	=9	=9	=9
v	4E	4e	4g	4b
III	4C	4e	4g	4cc
C:V65	4BB	4d	4f	4dd
I	4C	4c	4e	4g
=10	=10	=10	=10	=10
G:V(64)	4D	4G	4d	4b
V7	4D	4F#	4c	4a
I;	2GG;	2G;	2B;	2g;
=11	=11	=11	=11	=11
IV	2C	2G	2e	2g
ii	4AA	4A	4e	4cc
a:V7	4E	4G#	4d	4b
=12	=12	=12	=12	=12
VI	4F	4A	4c	4a
III	4C	4G	4c	4e
iv6/iv	4BB-	4G	4d	4g
iv64	4AA	4A	4d	4f
=13	=13	=13	=13	=13
V65	4GG#	4B	4d	4e
i	4AA	4A	4c	4e
V;	2EE;	2G#X;	2B;	2e;
==	==	==	==	==
*-	*-	*-	*-	*-
!!!YOR1: 371 vierstimmige Choralges&auml;nge von Johann Sebastian Bach, 
!!!YOR2: 4th ed. by Alfred D&ouml;rffel (Leipzig: Breitkopf und H&auml;rtel, 
!!!YOR2: c.1875). 178 pp. Plate "V.A.10".  reprint: J.S. Bach, 371 Four-Part 
!!!YOR4: Chorales (New York: Associated Music Publishers, Inc., c.1940).
!!!SMS: B&H, 4th ed, Alfred D&ouml;rffel, c.1875, plate V.A.10
!!!EED:  Craig Stuart Sapp
!!!EEV:  2009/05/22
